X: 111
T: Church Street Polka
N: page 37
N: heptatonic
R: polka
M: 2/4
L: 1/16
K: G
Q:1/4=60
dc|\
"G"B2G2 D3D|"C"E2c2 c2AB|"Am"c2E2 F2E2|"D7"D2d2 dedc|"G"B2G2 D3D|"C"E2c2 c2AB|"Am"cBAG "D7"FDEF|"G"G2B2 G2:|
Bd|\
"G"g4 "D7"f4 | "C"c6 d2 | "Am"e4 "D"d4 | "G"B6 c2 \
| "G"d3e d2B2 | "D7"A6 BA | "C"G3A B2c2 | "D"d2d2 e2f2 |
"G"g4 "Bm"f4|"C"c6 d2|"Am"e4 d4|"G"B6 c2|\
d3e d2B2|"Am" A6 BA|"C" G2g2 "D7"fgaf|g6|
